src/icons/brand.icon.svg

<svg viewBox="0 0 19 19" fill="none" xmlns="http://www.w3.org/2000/svg">
<path d="M15 8H12C9.79086 8 8 9.79086 8 12V15C8 17.2091 9.79086 19 12 19H15C17.2091 19 19 17.2091 19 15V12C19 9.79086 17.2091 8 15 8Z" fill="#DEF3F3"/>
<path fill-rule="evenodd" clip-rule="evenodd" d="M11.5 16.96H9.88L3.13 16.94C2.17 16.94 1.38 16.15 1.38 15.19V3.12C1.38 2.16 2.17 1.37 3.13 1.37H11.19L12.06 1.43C13.23 1.45 14.16 2.4 14.16 3.57V5.59H15.53V3.58C15.53 1.68 13.98 0.1 12.08 0.07L11.21 0H11.18H3.12C1.4 0 0 1.4 0 3.12V15.18C0 16.9 1.4 18.31 3.12 18.31L11.81 18.33C12.19 18.33 12.49 18.03 12.5 17.65L11.5 16.96ZM12.64 5.06H3.45C3.12 5.06 2.85 4.79 2.85 4.46C2.85 4.13 3.12 3.86 3.45 3.86H12.63C12.96 3.86 13.23 4.13 13.23 4.46C13.23 4.8 12.97 5.06 12.64 5.06ZM3.45 8.01H5.81C6.14 8.01 6.41 7.74 6.41 7.41C6.41 7.08 6.14 6.81 5.81 6.81H3.45C3.12 6.81 2.85 7.08 2.85 7.41C2.86 7.74 3.12 8.01 3.45 8.01Z" fill="#333333"/>
<path d="M18.4385 10.4905L15.4459 7.08845C15.3965 7.03239 15.3237 7 15.247 7H8.75234C8.67564 7 8.60284 7.03239 8.55344 7.08845L5.56088 10.4905C5.49589 10.564 5.48159 10.6686 5.52449 10.7558C5.53488 10.7758 5.54788 10.7945 5.56218 10.8107L11.8021 17.9112C11.9061 18.0296 12.0959 18.0296 12.1999 17.9112L18.4398 10.8107C18.4541 10.7945 18.4671 10.7758 18.4775 10.7558C18.5178 10.6686 18.5035 10.564 18.4385 10.4905ZM17.6806 10.4021H14.7439L12.5132 7.49829H15.1261L17.6806 10.4021ZM9.20343 10.9003L11.2808 16.5472L6.31877 10.9003H9.20343ZM14.2448 10.9003L11.9997 17.0031L9.75462 10.9003H14.2448ZM9.90152 10.4021L11.9997 7.66895L14.0979 10.4008H9.90152V10.4021ZM14.7959 10.9003H17.6806L12.7186 16.5472L14.7959 10.9003ZM8.87324 7.49829H11.4849L9.25543 10.4021H6.31877L8.87324 7.49829Z" fill="#333333" stroke="#333333" stroke-width="0.6"/>
</svg>

<svg viewBox="0 0 19 19" fill="none" xmlns="http://www.w3.org/2000/svg"><path d="M15 8h-3a4 4 0 00-4 4v3a4 4 0 004 4h3a4 4 0 004-4v-3a4 4 0 00-4-4z" fill="#DEF3F3"/><path fill-rule="evenodd" clip-rule="evenodd" d="M11.5 16.96H9.88l-6.75-.02c-.96 0-1.75-.79-1.75-1.75V3.12c0-.96.79-1.75 1.75-1.75h8.06l.87.06c1.17.02 2.1.97 2.1 2.14v2.02h1.37V3.58c0-1.9-1.55-3.48-3.45-3.51L11.21 0H3.12C1.4 0 0 1.4 0 3.12v12.06c0 1.72 1.4 3.13 3.12 3.13l8.69.02c.38 0 .68-.3.69-.68l-1-.69zm1.14-11.9H3.45c-.33 0-.6-.27-.6-.6 0-.33.27-.6.6-.6h9.18c.33 0 .6.27.6.6 0 .34-.26.6-.59.6zM3.45 8.01h2.36c.33 0 .6-.27.6-.6 0-.33-.27-.6-.6-.6H3.45c-.33 0-.6.27-.6.6.01.33.27.6.6.6z" fill="#333"/><path d="M18.439 10.49l-2.993-3.402A.265.265 0 0015.247 7H8.752a.265.265 0 00-.199.088l-2.992 3.403a.24.24 0 00.001.32l6.24 7.1a.267.267 0 00.398 0l6.24-7.1a.276.276 0 00.037-.055.246.246 0 00-.038-.265zm-.758-.088h-2.937l-2.23-2.904h2.612l2.555 2.904zm-8.478.498l2.078 5.647L6.319 10.9h2.884zm5.042 0L12 17.003 9.755 10.9h4.49zm-4.343-.498L12 7.67l2.098 2.732H9.902v.001zm4.894.498h2.885l-4.962 5.647 2.077-5.647zM8.873 7.498h2.612l-2.23 2.904H6.32l2.554-2.904z" fill="#333" stroke="#333" stroke-width=".6"/></svg>
